static/assets/img/icons/theme/devices/apple-watch.svg

<svg height="24" viewBox="0 0 24 24" width="24" xmlns="http://www.w3.org/2000/svg"><g fill="none" fill-rule="evenodd"><path d="m0 0h24v24h-24z" opacity="0"/><g fill="#000"><path d="m16.4505 4.17581303c.4798324.27345793.6471321.88412045.3736742 1.36395293-.273458.47983248-.8841205.64713212-1.363953.37367419-1.0454253-.59579092-2.2285346-.91344015-3.4602212-.91344015-3.86599325 0-7 3.13400675-7 7 0 3.8659932 3.13400675 7 7 7 1.219344 0 2.3911317-.3112977 3.4290477-.89578.4812281-.2709943 1.0910249-.1005661 1.3620192.3806621.2709943.4812281.1005661 1.0910249-.380662 1.3620192-1.3355678.7520991-2.8450116 1.1530987-4.4104049 1.1530987-4.97056275 0-9-4.0294373-9-9 0-4.97056275 4.02943725-9 9-9 1.5812651 0 3.1053118.40918641 4.4505 1.17581303z" fill-rule="nonzero" opacity=".3"/><path d="m18.5 6c1.3807119 0 2.5 1.11928813 2.5 2.5v7c0 1.3807119-1.1192881 2.5-2.5 2.5s-2.5-1.1192881-2.5-2.5v-7c0-1.38071187 1.1192881-2.5 2.5-2.5zm0 6c.8284271 0 1.5-.6715729 1.5-1.5 0-.82842712-.6715729-1.5-1.5-1.5s-1.5.67157288-1.5 1.5c0 .8284271.6715729 1.5 1.5 1.5z"/></g></g></svg>

<svg width="24px" height="24px" viewBox="0 0 24 24" version="1.1" xmlns="http://www.w3.org/2000/svg" xmlns:xlink="http://www.w3.org/1999/xlink">
    <title>Icon For Apple-Watch</title>
    <g stroke="none" stroke-width="1" fill="none" fill-rule="evenodd">
        <rect opacity="0" x="0" y="0" width="24" height="24"></rect>
        <path d="M16.4505,4.17581303 C16.9303324,4.44927096 17.0976321,5.05993348 16.8241742,5.53976596 C16.5507162,6.01959844 15.9400537,6.18689808 15.4602212,5.91344015 C14.4147959,5.31764923 13.2316866,5 12,5 C8.13400675,5 5,8.13400675 5,12 C5,15.8659932 8.13400675,19 12,19 C13.219344,19 14.3911317,18.6887023 15.4290477,18.10422 C15.9102758,17.8332257 16.5200726,18.0036539 16.7910669,18.4848821 C17.0620612,18.9661102 16.891633,19.575907 16.4104049,19.8469013 C15.0748371,20.5990004 13.5653933,21 12,21 C7.02943725,21 3,16.9705627 3,12 C3,7.02943725 7.02943725,3 12,3 C13.5812651,3 15.1053118,3.40918641 16.4505,4.17581303 Z" fill="#000000" fill-rule="nonzero" opacity="0.3"></path>
        <path d="M18.5,6 C19.8807119,6 21,7.11928813 21,8.5 L21,15.5 C21,16.8807119 19.8807119,18 18.5,18 C17.1192881,18 16,16.8807119 16,15.5 L16,8.5 C16,7.11928813 17.1192881,6 18.5,6 Z M18.5,12 C19.3284271,12 20,11.3284271 20,10.5 C20,9.67157288 19.3284271,9 18.5,9 C17.6715729,9 17,9.67157288 17,10.5 C17,11.3284271 17.6715729,12 18.5,12 Z" fill="#000000"></path>
    </g>
</svg>
